X:106
T:Sgt. O'Leary
T:From KG, Then and Now (2006 Stand piece)
S:CFD Vol. 2
M:6/8
L:1/8
K:D
%%MIDI program 72
%%MIDI transpose 8
%%MIDI ratio 3 1
(3(A/B/c/)|:.d2d def|.d2d def|(LeA)A Acd|(LeA)A AB(c|.d2)d def|.d2d def|
(LeA)A ABc|[1 ddf dz (3(A/B/c/):|[2 ddf Ld2f|:La2f La2f|d2.d dLfLg|b2g b2g|
e2.e Le2f|La2f La2f|d2.d def|(LeA).A .A.B.c|[1 .d.df Ld2f:|[2 ddf d z|
